X:1169
T:Barbery Bell. GS.024
T:St. Patrick's Day in the Morning,aka. GS.024
M:6/8
L:1/8
Q:120
S:George Spencer m/s, Leeds,1831
R:Jig
O:England
A:Leeds
N:  The last two bars are written out once  and marked 'bis' with repeat
N:marks at
N: the beginning and end of the phrase and a line bracketing the bars
N:together.
N:Looks odd but works fine
H:1831
Z:vmp.Cherri Graebe
K:G major
D | GAG G2B | ded dBG | ABc B2G | EFE E2D | GAG G2B |! ded dBG | ABc B2G
 | E2 F G2 ||
e | def g2e | f2d e^cA |! def g2e | f2d e2 c | def gag | fed dfg | def g
ag | fed dfg :||


